X: 2125
T: MISS MARIA DUNDAS
C:
Q: "Reel."
R: Reel.
%R: reel
B: James Kerr "Merry Melodies" v.2 p.15 #125
Z: 2016 John Chambers <jc:trillian.mit.edu>
M: C
L: 1/8
K: G
ug |\
dG G/G/G d2Bd | egfg dBBg |\
dG G/G/G d2Bd | egdB A/A/A A ::\
ua |\
(g/a/b) (ab) geeg | dgBg dBBd |\
(g/a/b) (ab) geeg | dBgB A3 :|
